X:158
T:score239
L:1/8
Q:1/4=96
M:4/4
I:linebreak $
K:Cmin
 .c2 .G2 | c2- c z/d/ e z/d/ e z/c/ | g2- g z/e/ .f2 .g2 |$ .a.g.f.e .d2 .g2 | .f.e.d.e .c2 .G2 | %5
 c2- c z/d/ e z/d/ e z/c/ |$ g2- g z/e/ .f2 .g2 | .a.g.f.e .e2 .d2 | c2 z2 z4 |] %9
